material/.icons/material/weather-sunny-alert.svg

<svg xmlns="http://www.w3.org/2000/svg" viewBox="0 0 24 24"><path d="M12 7a5 5 0 00-5 5 5 5 0 005 5 5 5 0 005-5 5 5 0 00-5-5m0 8a3 3 0 01-3-3 3 3 0 013-3 3 3 0 013 3 3 3 0 01-3 3m0-13l2.39 3.42C13.65 5.15 12.84 5 12 5c-.84 0-1.65.15-2.39.42L12 2M3.34 7l4.16-.35A7.2 7.2 0 005.94 8.5c-.44.74-.69 1.5-.83 2.29L3.34 7m.02 10l1.76-3.77a7.131 7.131 0 002.38 4.14L3.36 17M12 22l-2.41-3.44c.74.27 1.55.44 2.41.44.82 0 1.63-.17 2.37-.44M19 13V7h2v6h-2m0 4v-2h2v2"/></svg>

<?xml version="1.0" encoding="UTF-8"?><!DOCTYPE svg PUBLIC "-//W3C//DTD SVG 1.1//EN" "http://www.w3.org/Graphics/SVG/1.1/DTD/svg11.dtd"><svg xmlns="http://www.w3.org/2000/svg" xmlns:xlink="http://www.w3.org/1999/xlink" version="1.1" id="mdi-weather-sunny-alert" width="24" height="24" viewBox="0 0 24 24"><path d="M12,7A5,5 0 0,0 7,12A5,5 0 0,0 12,17A5,5 0 0,0 17,12A5,5 0 0,0 12,7M12,15A3,3 0 0,1 9,12A3,3 0 0,1 12,9A3,3 0 0,1 15,12A3,3 0 0,1 12,15M12,2L14.39,5.42C13.65,5.15 12.84,5 12,5C11.16,5 10.35,5.15 9.61,5.42L12,2M3.34,7L7.5,6.65C6.9,7.16 6.36,7.78 5.94,8.5C5.5,9.24 5.25,10 5.11,10.79L3.34,7M3.36,17L5.12,13.23C5.26,14 5.53,14.78 5.95,15.5C6.37,16.24 6.91,16.86 7.5,17.37L3.36,17M12,22L9.59,18.56C10.33,18.83 11.14,19 12,19C12.82,19 13.63,18.83 14.37,18.56M19,13V7H21V13H19M19,17V15H21V17" /></svg>
